X: 733
P: Longways for &c.
M: 3/4
L: 1/8
K: G
V: 1
|:\
d2 B2 g2 | Tf4 A2 | Bc d2 e2 | d2B2g2 |\
(ed)(cB)(AG) | c3 d e2 | d2 B2 g2 | Tf4 A2 :|
|:\
g2 G2 B2 | g2 f2 e2 | d2 B2 G2 | g2 G2 B2 |\
{ef}g2 Tf2 e2 | Tf4 A2 | g2 G2 B2 | g2 f2 e2 |\
d2 g2 B2 | c3 e (c/d/)e | d2 B2 g2 | Tf4 A2 |]
V: 2 clef=bass middle=d
|:\
ga b2 c'2 | b2 g2 b2 | c'2 e'2 c'2 | ga b2 c'2 |\
b2 g2 c'2 | d'2 defd | ga b2 c'2 | b2 g2 b2 |\
c'2 e'2 c'2 | a2 f2 d2 | g4 G2 | d6 :|
|:\
e2 d2 c2 | dedcBA | G4 gf | e2 d2 c2 |\

